X:404
T: DAS GANZE DORF VERSAMMELT SICH
N: B0476
O: Europa, Mitteleuropa, Deutschland
R: Liebes - Lied, Leid, Klage, Tod
M: 3/4
L: 1/8
K: D
D | DFAFGE | FFFD
EC | DAAGGF | F2E2z
A | AcecAG | FAd3
d | dBA2GE | E2D2z

